src/assets/tokens/sUSDe.svg

<svg fill="none" height="398" viewBox="0 0 398 398" width="398" xmlns="http://www.w3.org/2000/svg" xmlns:xlink="http://www.w3.org/1999/xlink"><radialGradient id="a" cx="0" cy="0" gradientTransform="matrix(0 411.352 -289.55 0 199.514 60.9737)" gradientUnits="userSpaceOnUse" r="1"><stop offset=".03125" stop-color="#fafafa"/><stop offset="1" stop-color="#e3e3e3"/></radialGradient><linearGradient id="b" gradientUnits="userSpaceOnUse" x1="199.095" x2="199.095" y1=".318867" y2="397.878"><stop offset="0" stop-color="#f4f4f4"/><stop offset="1" stop-color="#bebebe"/></linearGradient><path d="m199.091 7.52853h.008c105.799 0 191.566 85.76697 191.566 191.56647v.007c0 105.799-85.767 191.566-191.566 191.566h-.008c-105.7986 0-191.56564-85.767-191.56564-191.566v-.007c0-105.7995 85.76704-191.56647 191.56564-191.56647z" fill="#fff" stroke="#111" stroke-width="7.05706"/><path d="m199.099 4h-.008c-107.7474 0-195.09417 87.3468-195.09417 195.095v.007c0 107.748 87.34677 195.094 195.09417 195.094h.008c107.747 0 195.094-87.346 195.094-195.094v-.007c0-107.7482-87.347-195.095-195.094-195.095z" fill="url(#a)" fill-opacity=".7"/><path d="m199.099 4h-.008c-107.7474 0-195.09417 87.3468-195.09417 195.095v.007c0 107.748 87.34677 195.094 195.09417 195.094h.008c107.747 0 195.094-87.346 195.094-195.094v-.007c0-107.7482-87.347-195.095-195.094-195.095z" stroke="url(#b)" stroke-width="7.14639"/><g clip-rule="evenodd" fill="#000" fill-rule="evenodd"><path d="m142.254 45.7356c-62.2552 23.0477-106.6295 82.9524-106.6295 153.2224 0 70.269 44.3743 130.174 106.6295 153.222v-16.113c-53.7888-22.27-91.6295-75.27-91.6295-137.109s37.8407-114.8398 91.6295-137.1099zm113.413 16.1146v-16.1128c62.253 23.0491 106.625 82.9526 106.625 153.2206 0 70.267-44.372 130.171-106.625 153.22v-16.113c53.786-22.271 91.625-75.27 91.625-137.107s-37.839-114.8365-91.625-137.1078z"/><path d="m198.968 61.835 8.555 14.6988 52.364 89.9662h33.113v15h-188v-15h33.036l52.375-89.967zm-.002 39.358 38.012 65.307h-76.031zm61.014 129.307h33.02v-15h-188v15h32.943l52.468 90.127 8.557 14.698 8.555-14.699zm-22.909 0h-76.217l38.112 65.467z"/></g></svg>

<svg width="398" height="398" viewBox="0 0 398 398" fill="none" xmlns="http://www.w3.org/2000/svg">
    <path
        d="M199.091 7.52853H199.099C304.898 7.52853 390.665 93.2955 390.665 199.095V199.102C390.665 304.901 304.898 390.668 199.099 390.668H199.091C93.2924 390.668 7.52536 304.901 7.52536 199.102V199.095C7.52536 93.2955 93.2924 7.52853 199.091 7.52853Z"
        fill="white" stroke="#111111" stroke-width="7.05706" />
    <path
        d="M199.099 4H199.091C91.3436 4 3.99683 91.3468 3.99683 199.095V199.102C3.99683 306.85 91.3436 394.196 199.091 394.196H199.099C306.846 394.196 394.193 306.85 394.193 199.102V199.095C394.193 91.3468 306.846 4 199.099 4Z"
        fill="url(#paint0_radial_2039_7246)" fill-opacity="0.7" />
    <path
        d="M199.099 4H199.091C91.3436 4 3.99683 91.3468 3.99683 199.095V199.102C3.99683 306.85 91.3436 394.196 199.091 394.196H199.099C306.846 394.196 394.193 306.85 394.193 199.102V199.095C394.193 91.3468 306.846 4 199.099 4Z"
        stroke="url(#paint1_linear_2039_7246)" stroke-width="7.14639" />
    <path fill-rule="evenodd" clip-rule="evenodd"
        d="M142.254 45.7356C79.9988 68.7833 35.6245 128.688 35.6245 198.958C35.6245 269.227 79.9988 329.132 142.254 352.18V336.067C88.4652 313.797 50.6245 260.797 50.6245 198.958C50.6245 137.119 88.4652 84.1182 142.254 61.8481V45.7356ZM255.667 61.8502V45.7374C317.92 68.7865 362.292 128.69 362.292 198.958C362.292 269.225 317.92 329.129 255.667 352.178V336.065C309.453 313.794 347.292 260.795 347.292 198.958C347.292 137.121 309.453 84.1215 255.667 61.8502Z"
        fill="black" />
    <path fill-rule="evenodd" clip-rule="evenodd"
        d="M198.968 61.835L207.523 76.5338L259.887 166.5H293V181.5H105V166.5H138.036L190.411 76.533L198.968 61.835ZM198.966 101.193L236.978 166.5H160.947L198.966 101.193ZM259.98 230.5H293V215.5H105V230.5H137.943L190.411 320.627L198.968 335.325L207.523 320.626L259.98 230.5ZM237.071 230.5H160.854L198.966 295.967L237.071 230.5Z"
        fill="black" />
    <defs>
        <radialGradient id="paint0_radial_2039_7246" cx="0" cy="0" r="1" gradientUnits="userSpaceOnUse"
            gradientTransform="translate(199.514 60.9737) rotate(90) scale(411.352 289.55)">
            <stop offset="0.03125" stop-color="#FAFAFA" />
            <stop offset="1" stop-color="#E3E3E3" />
        </radialGradient>
        <linearGradient id="paint1_linear_2039_7246" x1="199.095" y1="0.318867" x2="199.095" y2="397.878"
            gradientUnits="userSpaceOnUse">
            <stop stop-color="#F4F4F4" />
            <stop offset="1" stop-color="#BEBEBE" />
        </linearGradient>
    </defs>
</svg>
